svgs/sharp-regular/message-pen.svg

<svg xmlns="http://www.w3.org/2000/svg" viewBox="0 0 512 512"><!--! Font Awesome Pro 6.6.0 by @fontawesome - https://fontawesome.com License - https://fontawesome.com/license (Commercial License) Copyright 2024 Fonticons, Inc. --><path d="M160 512l48-32 96-64 160 0 48 0 0-48 0-320 0-48L464 0 48 0 0 0 0 48 0 368l0 48 48 0 64 0 48 0 0 38.3 0 9.7 0 48zM277.4 376.1L208 422.3l0-6.3 0-48-48 0L48 368 48 48l416 0 0 320-160 0-14.5 0-12.1 8.1zm27.4-264l-29.1 29.1L323 188.4l29.1-29.1L304.8 112zm-51.7 51.7l-85.2 85.2L160 304.1l55.3-7.9L300.4 211l-47.3-47.3z"/></svg>

<svg xmlns="http://www.w3.org/2000/svg" viewBox="0 0 512 512"><!--! Font Awesome Pro 6.4.2 by @fontawesome - https://fontawesome.com License - https://fontawesome.com/license (Commercial License) Copyright 2023 Fonticons, Inc. --><path d="M160 512l48-32 96-64H464h48V368 48 0H464 48 0V48 368v48H48h64 48v38.3V464v48zM277.4 376.1L208 422.3V416 368H160 48V48H464V368H304 289.5l-12.1 8.1zm27.4-264l-29.1 29.1L323 188.4l29.1-29.1L304.8 112zm-51.7 51.7l-85.2 85.2L160 304.1l55.3-7.9L300.4 211l-47.3-47.3z"/></svg>
